packages/icons/src/svg/datastreams-positive.svg

<svg xmlns="http://www.w3.org/2000/svg" viewBox="0 0 16 16">
  <path d="M14.3447,8.6133 C14.0907,11.0883 12.4017,13.2313 9.9717,14.0203 C6.8797,15.0253 3.4557,13.4793 2.1577,10.5003 L1.3987,10.7463 L2.0067,9.2373 L3.3847,10.1013 L2.6697,10.3343 C3.8727,13.0283 6.9977,14.4243 9.8067,13.5113 C12.0227,12.7913 13.5667,10.8423 13.8097,8.5883 C13.6397,8.5083 13.5007,8.3613 13.4377,8.1693 C13.3177,7.7993 13.5207,7.4003 13.8907,7.2803 C14.2617,7.1603 14.6587,7.3623 14.7797,7.7323 C14.8977,8.0963 14.7027,8.4863 14.3447,8.6133 M10.9967,5.4363 C10.9727,5.4723 10.4017,6.3203 9.4617,6.4153 C9.4037,6.4213 9.3457,6.4243 9.2877,6.4243 C8.7447,6.4243 8.2107,6.1653 7.6987,5.6533 C7.2977,5.2523 6.9077,5.0673 6.5427,5.1063 C5.9747,5.1673 5.5867,5.7443 5.5837,5.7503 C5.4707,5.9233 5.2407,5.9723 5.0667,5.8613 C4.8937,5.7493 4.8437,5.5173 4.9557,5.3443 C4.9787,5.3083 5.5347,4.4633 6.4637,4.3643 C7.0647,4.3003 7.6577,4.5553 8.2267,5.1253 C8.6267,5.5243 9.0167,5.7083 9.3867,5.6723 C9.9687,5.6133 10.3707,5.0303 10.3747,5.0243 C10.4887,4.8513 10.7197,4.8043 10.8917,4.9193 C11.0637,5.0333 11.1117,5.2643 10.9967,5.4363 M10.9967,10.4693 C10.9727,10.5063 10.4017,11.3533 9.4617,11.4483 C9.4037,11.4543 9.3457,11.4573 9.2877,11.4573 C8.7447,11.4573 8.2107,11.1983 7.6987,10.6863 C7.2977,10.2853 6.9077,10.1003 6.5427,10.1393 C5.9747,10.2003 5.5867,10.7773 5.5837,10.7833 C5.4707,10.9563 5.2407,11.0063 5.0667,10.8943 C4.8937,10.7823 4.8437,10.5503 4.9557,10.3783 C4.9787,10.3423 5.5347,9.4963 6.4637,9.3973 C7.0647,9.3333 7.6577,9.5893 8.2267,10.1583 C8.6267,10.5573 9.0167,10.7413 9.3867,10.7053 C9.9687,10.6463 10.3707,10.0633 10.3747,10.0573 C10.4887,9.8853 10.7197,9.8383 10.8917,9.9523 C11.0637,10.0663 11.1117,10.2983 10.9967,10.4693 M10.9967,7.9493 C10.9727,7.9853 10.4017,8.8333 9.4617,8.9263 C9.4037,8.9323 9.3457,8.9353 9.2877,8.9353 C8.7447,8.9353 8.2107,8.6763 7.6987,8.1653 C7.2987,7.7653 6.9127,7.5813 6.5477,7.6183 C5.9747,7.6763 5.5867,8.2583 5.5827,8.2633 C5.4697,8.4353 5.2387,8.4843 5.0657,8.3723 C4.8937,8.2593 4.8447,8.0293 4.9557,7.8573 C4.9787,7.8213 5.5347,6.9743 6.4647,6.8763 C7.0647,6.8123 7.6577,7.0683 8.2267,7.6363 C8.6267,8.0373 9.0167,8.2203 9.3867,8.1833 C9.9687,8.1253 10.3707,7.5423 10.3747,7.5363 C10.4887,7.3643 10.7197,7.3173 10.8917,7.4313 C11.0637,7.5453 11.1117,7.7773 10.9967,7.9493 M1.2147,8.2503 C1.0947,7.8833 1.2947,7.4883 1.6607,7.3643 C1.8887,4.8603 3.5807,2.6913 6.0407,1.8923 C9.2007,0.8653 12.6497,2.4663 13.9087,5.5373 L14.6487,5.2973 L14.0417,6.8053 L12.6627,5.9413 L13.3987,5.7033 C12.2327,2.9163 9.0827,1.4673 6.2057,2.4013 C3.9567,3.1323 2.4087,5.1123 2.1957,7.3993 C2.3607,7.4803 2.4947,7.6253 2.5557,7.8143 C2.6767,8.1843 2.4737,8.5833 2.1037,8.7033 C1.7327,8.8233 1.3347,8.6213 1.2147,8.2503 M7.9997,0.0003 C3.5817,0.0003 -0.0003,3.5823 -0.0003,8.0003 C-0.0003,12.4183 3.5817,16.0003 7.9997,16.0003 C12.4187,16.0003 15.9997,12.4183 15.9997,8.0003 C15.9997,3.5823 12.4187,0.0003 7.9997,0.0003"/>
</svg>

<svg xmlns="http://www.w3.org/2000/svg" viewBox="0 0 16 16">
	<path d="M14.345 8.613a6.373 6.373 0 0 1-4.373 5.407c-3.092 1.005-6.516-.54-7.814-3.52l-.76.246.609-1.509 1.378.864-.715.233c1.203 2.694 4.328 4.09 7.137 3.177a5.84 5.84 0 0 0 4.003-4.923.707.707 0 0 1-.372-.419.706.706 0 0 1 1.342-.437.705.705 0 0 1-.435.881m-3.348-3.177c-.024.036-.595.884-1.535.98a1.69 1.69 0 0 1-.174.008c-.543 0-1.077-.259-1.59-.77-.4-.402-.79-.587-1.155-.548-.568.061-.956.638-.96.644a.374.374 0 0 1-.628-.406c.024-.036.58-.88 1.509-.98.6-.064 1.194.191 1.763.761.4.4.79.583 1.16.547.582-.059.984-.642.988-.648a.37.37 0 0 1 .517-.105c.172.114.22.345.105.517m0 5.033c-.024.037-.595.884-1.535.98a1.69 1.69 0 0 1-.174.008c-.543 0-1.077-.259-1.59-.77-.4-.402-.79-.587-1.155-.548-.568.061-.956.638-.96.644a.374.374 0 0 1-.627-.405c.023-.036.579-.882 1.508-.98.6-.065 1.194.191 1.763.76.4.4.79.583 1.16.547.582-.059.984-.642.988-.648a.373.373 0 1 1 .622.412m0-2.52c-.024.036-.595.884-1.535.977a1.69 1.69 0 0 1-.174.01c-.543 0-1.077-.26-1.59-.77-.4-.4-.785-.585-1.15-.548-.573.058-.961.64-.965.645a.374.374 0 0 1-.627-.406c.023-.036.579-.883 1.509-.98.6-.065 1.193.191 1.762.76.4.4.79.583 1.16.546.582-.058.984-.64.988-.647a.373.373 0 1 1 .622.413m-9.782.301a.705.705 0 0 1 .446-.886 6.358 6.358 0 0 1 4.38-5.472c3.16-1.027 6.609.574 7.868 3.645l.74-.24-.607 1.508-1.38-.864.737-.238c-1.166-2.787-4.316-4.236-7.193-3.302A5.823 5.823 0 0 0 2.196 7.4a.705.705 0 1 1-.981.851M8 0a8 8 0 1 0 0 16.001 8 8 0 0 0 0-16"/>
</svg>
